X: 1639
T: Whiskey You're the Devil
M:C|
L:1/8
B:O'Neill's 1639
N:"collected by F. O'Neill"
Z:Transcribed by Nick Terhorst, nickte@microsoft.com
N: Fixed staff breaks [jc]
K:A
E2|A>cB>c A>FF>E|A>ce>a f2 (3efg|a>gf>e f>ec>A|B>cB>A F2 E2|
A>cB>c A>FF>E|A>ce>a f2 (3efg|a>gf>e f>ec>A|B2 A2 A2:|
|:B>c|e>ag>a f>e c>e|f>ag>a f2 (3efg| a>gf>e f>ec>A|B>cB>A F2 E2|
|A>cB>c A>FF>E|A>ce>a f2 (3efg|a>gf>e f>ec>A|B2 A2 A2:|


